icons/mouse.svg

<svg id="Layer_2" data-name="Layer 2" xmlns="http://www.w3.org/2000/svg" viewBox="0 0 140 140"><path d="M43.22,114.59a5.13,5.13,0,0,1-2-.42A5.18,5.18,0,0,1,38,109.4V16.84a5.19,5.19,0,0,1,8.88-3.64l64.94,66A5.19,5.19,0,0,1,108.17,88H73.08L46.81,113.15A5.22,5.22,0,0,1,43.22,114.59ZM48.41,29.5V97.26l19-18.18A5.15,5.15,0,0,1,71,77.64H95.79Z" fill="#fff"/><path d="M88,128.35a5.19,5.19,0,0,1-4.79-3.18l-17-40.34a5.19,5.19,0,0,1,9.56-4l17,40.34A5.19,5.19,0,0,1,90,127.94,5.13,5.13,0,0,1,88,128.35Z" fill="#fff"/></svg>

<svg xmlns="http://www.w3.org/2000/svg" viewBox="0 0 140 140">
	<path d="M43.2 114.6a5.1 5.1 0 0 1-2-.4 5.2 5.2 0 0 1-3.2-4.8V16.8a5.2 5.2 0 0 1 8.9-3.6l65 66a5.2 5.2 0 0 1-3.7 8.8H73l-26.3 25.2a5.2 5.2 0 0 1-3.6 1.4Zm5.2-85.1v67.8l19-18.2a5.2 5.2 0 0 1 3.6-1.5h24.8Z" fill="#fff"/>
	<path d="M88 128.3a5.2 5.2 0 0 1-4.8-3.1l-17-40.4a5.2 5.2 0 0 1 9.6-4l17 40.4a5.2 5.2 0 0 1-2.8 6.7 5.1 5.1 0 0 1-2 .4Z" fill="#fff"/>
</svg>
